!!!COM: Beethoven
!!!OTL: Six Variations on an Original Theme
!!!Variation: Theme a
**kern
*clefG2
*k[b-]
*M2/4
*F:
8cc
=1
*
(4cc
.
8ddL
8ccJ)
*
=2
4ee/
8ff'
16r
16cc
=3
.
4f
.
.
8fL
.
16cL
16cJJ
=4
4c
.
.
.
16c
*
.
(16a'
16b-'
16b'JJ)
=5
.
8r
8f
8fL
8fJ
.
=6
4ee
8ff'
16r
16ff
=7
.
16.ff
32ccJJk)
4a
.
16.b-
32g
.
=8
16f')
16r
*clefF4
16c'
16r
16A'
16r
16r
*clefG2
=9
.
4f
.
4f
.
.
.
=10
8fL
8b-J
8aL
8aJ
=11
8gL
.
(16eL
16f#JJ)
8gL
.
8fJ
.
=12
8e
.
8r
.
8r
8f
.
.
=13
8e
8r
.
8r
8f
.
.
=14
(8eL
.
.
8gJ
8aL
8b-J)
.
=15
*
(4cc
.
8ddL
8ccJ)
*
=16
4ee
8ff'
16r
16cc
=17
.
4f
.
.
8fL
.
16cL
16cJJ
=18
4c
.
.
.
16c
*
.
(16a'
16b-'
16b'JJ)
=19
*
8r
8f
8fL
8fJ
*
=20
4ee
8ff'
16r
16ff
=21
*
16.ff
32ccJJk)
4a
.
16.b-
32g
*
=22
16f')
16r
*clefF4
16c'
16r
16A'
16r
*-
